X: 1
T: How stands the Glass around
S: Scanned image of unknown origin from Darlene Wigton 2020-2-27
R: march
Z: 2020 John Chambers <jc:trillian.mit.edu>
M: C|
L: 1/8
K: Am
%%continueall 0
E2 | A3 B c2 d2 | e6 E2 | A3 c B2 A2 | ^G2 ^F2 E2 E2 |
w: How stands the glass a-round? For shame! ye take no care, my boys! How
A3 B c2 d2 | e6 E2 | A3 B (cB) (A^G) | A4 z2 |[| g2 |
w: stands the glass a-round? Let mirth and wine* a-*bound. The
e4 (e3f/g/) | {e2}d4 z2 c2 | d3 e {g}f2 {e}d2 | g3 a g2 f2 |
w: trum-pets** sound, The co-lours they are fly-ing, boys, To
e4 Td3 c | c4 z2 c2 | {c2}B4 e3 A | (A2 ^G2) z2 E2 |
w: fight, kill, or wound; May we still be found* Con-
A3 B c2 d2 | e3 f e2 d2 | c4 TB4 | A4 z2 |]
w: tent with our hard fate, my boys, On the cold ground.
